src/images_karasa_jaga_svg/cmd/32/connectorlinesarrows.svg

<?xml version="1.0" encoding="UTF-8" standalone="no"?>
<!-- Created with Inkscape (http://www.inkscape.org/) -->

<svg
   xmlns:dc="http://purl.org/dc/elements/1.1/"
   xmlns:cc="http://creativecommons.org/ns#"
   xmlns:rdf="http://www.w3.org/1999/02/22-rdf-syntax-ns#"
   xmlns:svg="http://www.w3.org/2000/svg"
   xmlns="http://www.w3.org/2000/svg"
   xmlns:sodipodi="http://sodipodi.sourceforge.net/DTD/sodipodi-0.dtd"
   xmlns:inkscape="http://www.inkscape.org/namespaces/inkscape"
   width="128"
   height="128"
   id="svg3408"
   sodipodi:version="0.32"
   inkscape:version="0.92.2 (unknown)"
   version="1.0"
   sodipodi:docname="connectorlinesarrows.svg"
   inkscape:output_extension="org.inkscape.output.svgz.inkscape"
   inkscape:export-filename="/home/rizmut/Dokumen/Rizmut/Github/libreoffice-style-karasa-jaga/build/images_karasa_Jaga/cmd/32/connectorlinesarrows.png"
   inkscape:export-xdpi="24"
   inkscape:export-ydpi="24">
  <defs
     id="defs3410">
    <linearGradient
       id="linearGradient6330">
      <stop
         id="stop6332"
         offset="0"
         style="stop-color:#0968ef;stop-opacity:1;" />
      <stop
         id="stop6334"
         offset="1"
         style="stop-color:#aecffc;stop-opacity:1;" />
    </linearGradient>
  </defs>
  <sodipodi:namedview
     id="base"
     pagecolor="#ffffff"
     bordercolor="#666666"
     borderopacity="1.0"
     inkscape:pageopacity="0.0"
     inkscape:pageshadow="2"
     inkscape:zoom="4.0000004"
     inkscape:cx="-5.3378749"
     inkscape:cy="71.025822"
     inkscape:document-units="px"
     inkscape:current-layer="layer1"
     height="128px"
     width="128px"
     showborder="true"
     inkscape:showpageshadow="false"
     showgrid="true"
     inkscape:window-width="1366"
     inkscape:window-height="691"
     inkscape:window-x="0"
     inkscape:window-y="26"
     showguides="true"
     inkscape:guide-bbox="true"
     inkscape:window-maximized="1"
     inkscape:snap-global="true">
    <inkscape:grid
       id="GridFromPre046Settings"
       type="xygrid"
       originx="0"
       originy="0"
       spacingx="4"
       spacingy="4"
       color="#0000ff"
       empcolor="#0000ff"
       opacity="0.2"
       empopacity="0.4"
       empspacing="2" />
  </sodipodi:namedview>
  <metadata
     id="metadata3413">
    <rdf:RDF>
      <cc:Work
         rdf:about="">
        <dc:format>image/svg+xml</dc:format>
        <dc:type
           rdf:resource="http://purl.org/dc/dcmitype/StillImage" />
        <dc:title></dc:title>
      </cc:Work>
    </rdf:RDF>
  </metadata>
  <g
     inkscape:label="Livello 1"
     inkscape:groupmode="layer"
     id="layer1">
    <path
       style="opacity:0.98999999;fill:#4d4d4d;fill-opacity:1;stroke:none;stroke-width:4.81291389;stroke-linecap:square;stroke-linejoin:round;stroke-miterlimit:4;stroke-dasharray:none;stroke-dashoffset:0;stroke-opacity:1"
       d="M 50.140625 20 L 73.71875 108 L 77.859375 108 L 54.28125 20 L 50.140625 20 z "
       id="rect858" />
    <rect
       style="opacity:0.98999999;fill:#4d4d4d;fill-opacity:1;stroke:none;stroke-width:1.52197683;stroke-linecap:square;stroke-linejoin:round;stroke-miterlimit:4;stroke-dasharray:none;stroke-dashoffset:0;stroke-opacity:1"
       id="rect858-6"
       width="28"
       height="4"
       x="24"
       y="20" />
    <rect
       y="104"
       x="76"
       height="4"
       width="28"
       id="rect9400"
       style="opacity:0.98999999;fill:#4d4d4d;fill-opacity:1;stroke:none;stroke-width:2.01338601;stroke-linecap:square;stroke-linejoin:round;stroke-miterlimit:4;stroke-dasharray:none;stroke-dashoffset:0;stroke-opacity:1" />
    <path
       sodipodi:nodetypes="ccccc"
       inkscape:connector-curvature="0"
       id="path860"
       d="M 128,106 92,128 103,106 92,84 Z"
       style="fill:#4d4d4d;fill-opacity:0.99215686;fill-rule:evenodd;stroke:none;stroke-width:1.25px;stroke-linecap:butt;stroke-linejoin:miter;stroke-opacity:1" />
    <path
       style="fill:#4d4d4d;fill-opacity:0.99215686;fill-rule:evenodd;stroke:none;stroke-width:1.25px;stroke-linecap:butt;stroke-linejoin:miter;stroke-opacity:1"
       d="M 0,22 36,44 25,22 36,0 Z"
       id="path9495"
       inkscape:connector-curvature="0"
       sodipodi:nodetypes="ccccc" />
  </g>
</svg>

<svg height="32" width="32" xmlns="http://www.w3.org/2000/svg"><g fill="#4d4d4d" transform="scale(.25)"><path d="m50.140625 20 23.578125 88h4.140625l-23.578125-88z" opacity=".99"/><path d="m24 20h28v4h-28z" opacity=".99"/><path d="m76 104h28v4h-28z" opacity=".99"/><g fill-opacity=".992157" fill-rule="evenodd"><path d="m128 106-36 22 11-22-11-22z"/><path d="m0 22 36 22-11-22 11-22z"/></g></g></svg>
